X: 1
T: Polska efter Johannes Inge
T: (SvL VÃ¤stmanland nr. 97)
B: Svenska LÃ¥tar VÃ¤stmanland nr 97
B: http://www.smus.se/earkiv/fmk/browselarge.php?lang=sw&amp;katalogid=Vs+1&amp;bildnr=00005
S: efter Axel Inge
S: efter [[Personer/Johannes Inge]] (Axel Inges farfar, 1823-1899)
M: 3/4
L: 1/16
O: VÃ¤stmanland
R: Polska
Q: 134
N: ur SvL: NÃ¥gra finnar hade varit pÃ¥ marknad i Filipstad. NÃ¤r de foro hem sjÃ¶ngo de denna polska med texten nedan.
N: Skackelkepa fÃ¶rbinder svÃ¤ngeln med kÃ¤rran eller kÃ¤lken. I SmÃ¥land kallas den munkpinne.  Jfr. Hammarberg
n:r 152.
K: Dm
D2^F2 F2G2 G2G2 | ^F2A2 A2c2 c2B2 | B2A2 A2G2 G2^F2 | ^F2D2 D8 ::
d2d2 c4 B4 | G2A2 G4 ^F4 | D2E2 C4 D4 | D2E2 C4 D4 | D2^F2 G4 B4 | "*"A2^FA G8 :|
"* Eller:" (A2BA) G8 |

